**kern	**kern	**dynam
*part1	*part1	*part1
*staff2	*staff1	*
*I"Piano	*	*
*clefF4	*clefG2	*
*k[b-e-]	*k[b-e-]	*
=1	=1	=1
*^	*^	*
(8B-L	4F 4c	(8b-L	4f 4ee-	.
16AL	.	16aL	.	.
16GJ	.	16gJ	.	.
8AJ)	8F 8c	8aJ)	8f 8ee- 8ff	.
*v	*v	*	*	*
=	=	=	=
4BB- 4F 4B-	8b-L 8ee-	4f 4ff	.
.	8b- 8dd	.	.
8BB- 8B-	8b-J 8dd-X	8g 8ff 8gg	.
=	=	=	=
4C 4c	8ffL	4g 4cc 4gg	>
.	16eenL	.	.
.	16ddJ	.	.
8C	8eeJ	8g 8b- 8gg	.
*	*v	*v	*
=	=	=
(4CC	(4a 4cc 4ff 4aa	] p
8C	8g 8cc 8gg	.
=	=	=
!	!LO:TX:b:i:t=dim.	!
4CC	4f 4a 4ff	.
8C)	8c) 8g 8cc	.
=	=	=
(4CC	(4c 4e-X 4a	.
8C	8B- 8e- 8g	.
=	=	=
4CC	4A 4e- 4f	.
8C)	8B-) 8e- 8g	.
=	=	=
*-	*-	*-
!!!system-decoration: {(s1,s2)}
